src/assets/icons/fa/chevron-circle-down.svg

<?xml version="1.0" encoding="utf-8"?>
<svg width="1792" height="1792" viewBox="0 0 1792 1792" xmlns="http://www.w3.org/2000/svg"><path d="M941 1299l454-454q19-19 19-45t-19-45l-102-102q-19-19-45-19t-45 19l-307 307-307-307q-19-19-45-19t-45 19l-102 102q-19 19-19 45t19 45l454 454q19 19 45 19t45-19zm723-403q0 209-103 385.5t-279.5 279.5-385.5 103-385.5-103-279.5-279.5-103-385.5 103-385.5 279.5-279.5 385.5-103 385.5 103 279.5 279.5 103 385.5z"/></svg>

<svg xmlns="http://www.w3.org/2000/svg" viewBox="0 0 1792 1792"><path d="M941 1299l454-454q19-19 19-45t-19-45l-102-102q-19-19-45-19t-45 19L896 960 589 653q-19-19-45-19t-45 19L397 755q-19 19-19 45t19 45l454 454q19 19 45 19t45-19zm723-403q0 209-103 385.5T1281.5 1561 896 1664t-385.5-103T231 1281.5 128 896t103-385.5T510.5 231 896 128t385.5 103T1561 510.5 1664 896z"/></svg>
